X: 90
T:Farmer's Jamboree
% Nottingham Music Database
S:Lesley Dolman, via EF
M:6/8
K:A
P:A
c/2d/2|"A"efe "E7"dcB|"A"A2c E2c|"A"c^Bc edc|"E7"B3 Bcd|
"A"efe "E7"dcB|"A"A2c Eef|"E7"gfe dcB|"A"A3 A2:|
P:B
c/2d/2|"A"e2c a2g|"D"f2d "Bm"b2a|"E7"g2B Bdf|"A"e3 "E7"ecd|
"A"e2c a2g|"D"f2d "Bm"b2a|"E7"gfe dcB|"A"A3 A2:|<end>
<start>
